X:339
T:Reel 339
M:4/4
K:Dmaj
L:1/8
AG|F>D (3DDD DED>F|G>C (3ECC E>E (3EFG |F>D (3DDD FGAD|GECE A,3c|F>D (3DDD DEFD|E>A,A,B, CDEGFE|FEDE DFAd|cAGE D2|AG|FEDE Dddc|Adde dcAG|FEDC DEFd|cAGE FDEG|FEDE F>A (3AAA |=cdce deed|cAGE FEGF|EDCE D2|
